!!!COM: Bach, Johann Sebastian
!!!OTA: Das wohltemperirte Clavier
!!!OPR: Das wohltemperierte Klavier
!!!OTL: Fuga 14, Vol. 1
!!!XEN: The Well-Tempered Clavier, Volume 1, Fugue 14.
!!!ONB: F-sharp minor, 4-part
!!!SCT: BWV 859b
!!!YEC: Copyright 1994, David Huron
!!!YEM: Rights to all derivative electronic formats reserved.
**kern	**kern	**kern	**kern
*staff2	*staff2	*staff1	*staff1
*clefF4	*clefF4	*clefG2	*clefG2
*k[f#c#g#]	*k[f#c#g#]	*k[f#c#g#]	*k[f#c#g#]
*M6/4	*M6/4	*M6/4	*M6/4
*f#:	*f#:	*f#:	*f#:
*MM84	*MM84	*MM84	*MM84
=1	=1	=1	=1
1.r	4r	1.r	1.r
.	4F#	.	.
.	4G#	.	.
.	[2.A	.	.
=2	=2	=2	=2
1.r	4A]	1.r	1.r
.	8G#	.	.
.	8A#	.	.
.	[4B	.	.
.	4B]	.	.
.	8A#	.	.
.	8G#	.	.
.	8A#	.	.
.	8B#	.	.
=3	=3	=3	=3
1.r	4.c#	1.r	1.r
.	8Bn	.	.
.	8An	.	.
.	8c#	.	.
.	8B	.	.
.	8A	.	.
.	2G#M	.	.
=4	=4	=4	=4
1.r	2.F#	4r	1.r
.	.	4c#	.
.	.	4d#	.
.	8r	[2.e	.
.	8c#	.	.
.	8c#	.	.
.	8B	.	.
.	8B	.	.
.	8A#	.	.
=5	=5	=5	=5
1.r	8A#	4e]	1.r
.	8B	.	.
.	8B	8d#	.
.	8An	8e#	.
.	8A	[4f#	.
.	8G#	.	.
.	[2G#	4f#]	.
.	.	8e#	.
.	.	8d#	.
.	8G#]	8e#	.
.	8A#	8f##	.
=6	=6	=6	=6
1.r	8B#	4.g#	1.r
.	8c#	.	.
.	4d#	.	.
.	.	8f#	.
.	4G#	8en	.
.	.	8g#	.
.	2c#	8f#	.
.	.	8e	.
.	.	2d#	.
.	4B#	.	.
=7	=7	=7	=7
1.r	4.c#	8c#	1.r
.	.	8e	.
.	.	8f#	.
.	8Bn	8g#	.
.	8c#	[4a	.
.	8d#	.	.
.	4.e	8a]	.
.	.	8f#	.
.	.	8g#	.
.	8c#	8a#	.
.	8d#	[4b	.
.	8e#	.	.
=8	=8	=8	=8
4r	4f#	8b]	1.r
.	.	8b	.
4FF#	4c#	8b	.
.	.	8an	.
4GG#	4B	8a	.
.	.	8g#	.
[2.AA	4c#	8g#	.
.	.	8f#	.
.	4A	8f#	.
.	.	8e	.
.	4F#	8e	.
.	.	8d#	.
=9	=9	=9	=9
4AA]	2.B	8d#	1.r
.	.	8e	.
8GG#	.	8e	.
8AA#	.	8dn	.
[4BB	.	8d	.
.	.	8c#	.
4BB]	8E#	[2c#	.
.	8C#	.	.
8AA#	4F#	.	.
8GG#	.	.	.
8AA#	[4c#	8c#]	.
8BB#	.	8d#	.
=10	=10	=10	=10
4.C#	8c#]	8e#	1.r
.	8d#	8f#	.
.	4e#	4g#	.
8BBn	.	.	.
8AAn	8f#	4c#	.
8C#	8en	.	.
8BB	8dn	2f#	.
8AA	8c#	.	.
2GG#	[2B	.	.
.	.	4e#	.
=11	=11	=11	=11
4.FF#	8B]	2.f#	1.r
.	8A	.	.
.	8B	.	.
8EE	8c#	.	.
8FF#	[4d	.	.
8GG#	.	.	.
[2AA	8d]	4e	.
.	8c#	.	.
.	8d#	8f#	.
.	8e#	8g#	.
8AA]	[4f#	4a	.
8BB	.	.	.
=12	=12	=12	=12
8C#	8f#]	2.g#	1.r
8BB#	8f#	.	.
8C#	8en	.	.
8D#	8d#	.	.
[4E	8c#	.	.
.	8B	.	.
8E]	4A#	2.f#	.
8F#	.	.	.
8E	8B#	.	.
8D#	8c#	.	.
8C#	[4d#	.	.
8BB#	.	.	.
=13	=13	=13	=13
4.C#	8d#]	4.e	1.r
.	8d#	.	.
.	4c#	.	.
8C#	.	8f#	.
8Dn	4B	[4gn	.
8E	.	.	.
4.F#	8A#	4g]	.
.	8B	.	.
.	[2c#	8f#	.
8FF#	.	8e	.
8GG#	.	8d#	.
8AA#	.	8c#	.
=14	=14	=14	=14
4.BB	8c#]	4.d	1.r
.	8c#	.	.
.	4B	.	.
8BB	.	8e	.
8C#	4A	[4f#	.
8D	.	.	.
4.E	8G#	4f#]	.
.	8A	.	.
.	[2B	8e	.
8EE	.	8d	.
8FF#	.	8c#	.
8GG#	.	8B	.
=15	=15	=15	=15
8AA	8B]	4c#	4r
8BB	8d	.	.
8AA	8c#	4d#	4f#
8GG#	8B	.	.
8GG#	8B	4e#	4g#
8FF#	8A	.	.
8FF#	8A	[2.f#	[2.a
8F#	8B	.	.
8F#	2c#	.	.
8E	.	.	.
8E	.	.	.
8D#	.	.	.
=16	=16	=16	=16
8D#	2.B	4f#]	4a]
8E	.	.	.
8E	.	4g#	8g#
8Dn	.	.	8a#
8D	.	4f#	[4b
8C#	.	.	.
[2C#	[2.c#	4e#	4b]
.	.	8f#	8a#
.	.	8e#	8g#
8C#]	.	4f#	8a#
8D#	.	.	8b#
=17	=17	=17	=17
8E#	8c#]	2g#	4.cc#
8F#	8d#	.	.
4G#	4e#	.	.
.	.	.	8bn
4C#	8f#	[4f#	8an
.	8en	.	8cc#
2F#	8dn	8f#]	8b
.	8c#	8e	8a
.	8B	4d	2g#
.	8A	.	.
4E#	8G#	[4c#	.
.	8B	.	.
=18	=18	=18	=18
4.F#	4A	4.c#]	8f#
.	.	.	8a
.	4r	.	8b
8E#	.	8g#	8cc#
8F#	4r	8a	[4dd
8G#	.	8b	.
4.A	2.r	4.e	8dd]
.	.	.	8b
.	.	.	8cc#
8F#	.	8a	8dd#
8G#	.	8b	[4ee
8A#	.	8cc#	.
=19	=19	=19	=19
8B	1.r	[2.f#	8ee]
8BB	.	.	8ddn
8BB	.	.	8dd
8AA	.	.	8cc#
8AA	.	.	8cc#
8GG#	.	.	8b#
8GG#	.	8f#]	4b#
8A	.	8f#	.
8A	.	8f#	[2cc#
8G#	.	8e	.
8G#	.	8e	.
8F#	.	8d#	.
=20	=20	=20	=20
4F#	1.r	8d#	4cc#]
.	.	8g#	.
4G#	.	8g#	2b#
.	.	8f#	.
4GG#	.	8f#	.
.	.	8e	.
4.C#	.	4e	8cc#
.	.	.	8dd#
.	.	4cc#	8ee
8C#	.	.	8ff#
8Dn	.	4bn	[4ggn
8E	.	.	.
=21	=21	=21	=21
8F#	1.r	[2.a#	4ggn]
8Gn	.	.	.
8F#	.	.	4cc#
8E	.	.	.
8D	.	.	8ff#
8C#	.	.	8ee
8BB	.	4a#]	8dd
8D	.	.	8cc#
8GG#	.	8b	2dd
8FF#	.	8an	.
8FF#	.	[4g#	.
8EE#	.	.	.
=22	=22	=22	=22
8EE#	1.r	4g#]	4cc#
8E#	.	.	.
8F#	.	8a	4dd#
8G#	.	8b	.
8G#	.	8a	4ee#
8A	.	8g#	.
8A	.	4.f#	[2.ff#
8d	.	.	.
8d	.	.	.
8c#	.	8g#	.
8c#	.	8a	.
8B	.	8f#	.
=23	=23	=23	=23
8B	1.r	8g#	2ff#]
8A	.	8a	.
8G#	.	2b	.
8d	.	.	.
8c#	.	.	[4ee
8B	.	.	.
8A#	.	2cc#	4ee]
8B	.	.	.
8B	.	.	[2dd
8An	.	.	.
8A	.	4f#	.
8G#	.	.	.
=24	=24	=24	=24
8G#	1.r	4.b	4dd]
8F#	.	.	.
8E	.	.	[2cc#
8B	.	8e	.
8A	.	8f#	.
8G#	.	8g#	.
8F#	.	2a	4cc#]
8G#	.	.	.
8G#	.	.	[2b
8F#	.	.	.
8F#	.	4d	.
8E#	.	.	.
=25	=25	=25	=25
4E#	1.r	2c#	8b]
.	.	.	8g#
4F#	.	.	8a
.	.	.	8cc#
4FF#	.	4a	8ff#
.	.	.	8dd#
8C#	.	8g#	[2.ee
8D#	.	8cc#	.
8En	.	8cc#	.
8F#	.	8b	.
8Gn	.	8b	.
8E	.	8a#	.
=26	=26	=26	=26
8F#	1.r	8a#	4ee]
8FF#	.	8b	.
8BB	.	8b	8dd#
8C#	.	8an	8ee#
8D	.	8a	[4ff#
8BB	.	8g#	.
8C#	.	[2g#	4ff#]
8CC#	.	.	.
8C#	.	.	8ee#
8BB#	.	.	8dd#
8C#	.	8g#]	8ee#
8E	.	8a#	8ff##
=27	=27	=27	=27
8D#	1.r	8b#	4.gg#
8C#	.	8cc#	.
8BB#	.	4dd#	.
8GG#	.	.	8ff#
8C#	.	4g#	8een
8E	.	.	8gg#
8A	.	2cc#	8ff#
8F#	.	.	8ee
8G#	.	.	2dd#
8F#	.	.	.
8G#	.	4b#	.
8GG#	.	.	.
=28	=28	=28	=28
4C#	1.r	4.cc#	8cc#
.	.	.	8ee
4r	.	.	8ff#
.	.	8bn	8gg#
4r	.	8cc#	[4aa
.	.	8dd#	.
2.r	.	4.ee	8aa]
.	.	.	8ff#
.	.	.	8gg#
.	.	8cc#	8aa#
.	.	8dd#	[4bb
.	.	8ee#	.
=29	=29	=29	=29
1.r	4r	4ff#	8bb]
.	.	.	8aan
.	4F#	4f#	8aa
.	.	.	8gg#
.	4G#	4e#	8gg#
.	.	.	8ff#
.	[2.A	8f#	8ff#
.	.	8c#	16aa
.	.	.	16gg#
.	.	8f#	8ff#
.	.	8g#	8een
.	.	8a	8ee
.	.	8f#	8dd#
=30	=30	=30	=30
1.r	4A]	4.b	8dd#
.	.	.	8ee
.	8G#	.	8ee
.	8A#	8f#	8ddn
.	[4B	8g#	8dd
.	.	8a	8cc#
.	4B]	8e#	[2cc#
.	.	8c#	.
.	8A#	4f#	.
.	8G#	.	.
.	8A#	[4c#	8cc#]
.	8B#	.	8dd#
=31	=31	=31	=31
1.r	4.c#	8c#]	8ee#
.	.	8d#	8ff#
.	.	4e#	4gg#
.	8Bn	.	.
.	8An	8f#	4cc#
.	8c#	8en	.
.	8B	8dn	2ff#
.	8A	8c#	.
.	2G#	2B	.
.	.	.	4ee#
=32	=32	=32	=32
4r	4F#	8A	8ff#
.	.	8c#	8een
4F#	[2A	[2f#	8dd
.	.	.	8cc#
4E	.	.	8cc#
.	.	.	8b
[2.D#	4A]	2.f#_	8b
.	.	.	8ff#
.	4F#	.	8b
.	.	.	8a
.	[4B	.	8a
.	.	.	8g#
=33	=33	=33	=33
4D#]	2B]	8f#]	4.g#
.	.	8f#	.
8E	.	2e	.
8Dn	.	.	8b
[4C#	8c#	.	8a
.	8B	.	8g#
4C#]	2A	4.d	8f#
.	.	.	8e#
8D	.	.	8f#
8E	.	8f#	8a
8D	4r	8g#	8b
8C#	.	8a#	8cc#
=34	=34	=34	=34
4.BB	8r	8b	[2.dd
.	8F#	8an	.
.	4.B	8g#	.
8C#	.	8f#	.
8D	.	8e#	.
8BB	8A	8f#	.
8C#	4.G#	8e#	8dd]
8D#	.	8f#	8g#
2E#	.	[2g#	8cc#
.	8G#	.	8b
.	[4c#	.	8b
.	.	.	8a
=35	=35	=35	=35
[2.F#	8c#]	8g#]	[2.a
.	8e	8g#	.
.	8d#	8f#	.
.	8c#	8e	.
.	8c#	8e	.
.	8B	8d#	.
8F#]	[2.B	[2.d#	8a]
8A	.	.	8cc#
8G#	.	.	8b
8F#	.	.	8a
8F#	.	.	8a
8E	.	.	8g#
=36	=36	=36	=36
[2.E	8B]	8d#]	[2.g#
.	8dn	8f#	.
.	8c#	8e	.
.	8B	8dn	.
.	8B	8d	.
.	8A	8c#	.
8E]	[2.A	[2.c#	8g#]
8G#	.	.	8b
8F#	.	.	8a
8E	.	.	8gn
8E	.	.	8g
8D	.	.	8f#
=37	=37	=37	=37
2.D	4.A]	4c#]	8f#
.	.	.	8e#
.	.	2B	4f#
.	8A	.	.
.	8G#	.	4g#
.	8F#	.	.
[2.C#	8E#	8r	[2.a
.	8B	8g#	.
.	8A	8f#	.
.	8G#	8en	.
.	8G#	8e	.
.	8F#	8d#	.
=38	=38	=38	=38
1.C#_	8F#	8d#	4a]
.	8G#	8e	.
.	8G#	8e	8g#
.	8F#	8dn	8a#
.	8F#	8d	[4b
.	8E#	8c#	.
.	4E#	[2c#	4b]
.	8F#	.	8a#
.	8E#	.	8g#
.	4F#	8c#]	8a#
.	.	8d#	8b#
=39	=39	=39	=39
8C#]	4G#	4e#	4.cc#
8BB	.	.	.
8AA	2c#	8f#	.
8GG#	.	8e	8bn
8FF#	.	[4f#	8an
8AA	.	.	8cc#
8D	8r	2f#]	8b
8BB	8F#	.	8a
4C#	8c#	.	2g#
.	8B	.	.
4CC#	8B	4e#	.
.	8A#	.	.
=40	=40	=40	=40
1.FF#;	1.A#;	1.c#;	1.f#;
==	==	==	==
*-	*-	*-	*-
!!!CDT: 1685/3/-1750/7/28
!!!OCY: Deutschland
!!!PPP: Coethen; Cothen; Co2then
!!!ODT: <1722//
!!!PDT: 1722
!!!AFR: fuga; fugue
!!!AST: polyphony
!!!AMT: compound duple
!!!SCA: Bach-Werke-Verzeichnis
!!!YOR: Bach Gesellschaft
!!!SMS: British Library, various
!!!AIN: cemba; clavi
!!!EEV: 1.0
!!!RDT: 1986 November 20
!!!YER: 1994 August 10
!!!EFL: 14/48
!!!VTS: 3665127568
